build/finance/PlatinumOutline.svg

<svg xmlns="http://www.w3.org/2000/svg" fill="none" viewBox="0 0 24 24" focusable="false"><path d="M0 0H24V24H0z"/><path fill="#74767B" fill-rule="evenodd" d="M5 6.40303L19 6.40303C19.9389 6.40303 20.7 7.16414 20.7 8.10303L20.7 15.8969C20.7 16.8358 19.9389 17.5969 19 17.5969L5 17.5969C4.06112 17.5969 3.3 16.8358 3.3 15.8969L3.3 8.10303C3.3 7.16414 4.06112 6.40303 5 6.40303ZM2 8.10303C2 6.44617 3.34315 5.10303 5 5.10303L19 5.10303C20.6569 5.10303 22 6.44617 22 8.10303L22 15.8969C22 17.5538 20.6569 18.8969 19 18.8969L5 18.8969C3.34315 18.8969 2 17.5538 2 15.8969L2 8.10303ZM6.04987 15.3746L6.04987 12.9541L6.0498 12.9448L6.04987 12.9356L6.04987 9.32534C6.04987 8.57975 6.65429 7.97534 7.39988 7.97534L9.26141 7.97536C10.8132 7.97537 12.0711 9.23333 12.0711 10.7851C12.0711 12.3369 10.8132 13.5948 9.26139 13.5948L7.34987 13.5948L7.34987 15.3746C7.34987 15.7336 7.05885 16.0246 6.69987 16.0246C6.34088 16.0246 6.04987 15.7336 6.04987 15.3746ZM7.34987 9.32534L7.34987 12.2948L9.26139 12.2948C10.0952 12.2948 10.7711 11.6189 10.7711 10.7851C10.7711 9.9513 10.0952 9.27536 9.2614 9.27535L7.39987 9.27534C7.37226 9.27534 7.34987 9.29773 7.34987 9.32534ZM16.32 8.75653C16.32 8.39755 16.029 8.10653 15.67 8.10653C15.311 8.10653 15.02 8.39755 15.02 8.75653L15.02 10.0005L14.0344 10.0005C13.6754 10.0005 13.3844 10.2915 13.3844 10.6505C13.3844 11.0094 13.6754 11.3005 14.0344 11.3005L15.02 11.3005L15.02 14.0895C15.02 15.1664 15.8931 16.0395 16.97 16.0395L17.9926 16.0395C18.3516 16.0395 18.6426 15.7485 18.6426 15.3895C18.6426 15.0305 18.3516 14.7395 17.9926 14.7395L16.97 14.7395C16.611 14.7395 16.32 14.4485 16.32 14.0895L16.32 11.3005L17.3824 11.3005C17.7414 11.3005 18.0324 11.0094 18.0324 10.6505C18.0324 10.2915 17.7414 10.0005 17.3824 10.0005L16.32 10.0005L16.32 8.75653Z"/></svg>

<svg xmlns="http://www.w3.org/2000/svg" fill="none" viewBox="0 0 24 24" focusable="false"><path fill="#74767B" fill-rule="evenodd" d="M5 6.4h14c.93 0 1.7.76 1.7 1.7v7.79c0 .94-.77 1.7-1.7 1.7H5c-.94 0-1.7-.76-1.7-1.7V8.1c0-.94.76-1.7 1.7-1.7M2 8.1c0-1.66 1.34-3 3-3h14c1.65 0 3 1.34 3 3v7.79c0 1.66-1.35 3-3 3H5c-1.66 0-3-1.34-3-3zm4.04 7.27V9.32c0-.75.61-1.35 1.35-1.35h1.87c1.55 0 2.81 1.26 2.81 2.81s-1.26 2.81-2.81 2.81H7.34v1.78c0 .36-.29.65-.65.65-.35 0-.65-.29-.65-.65m1.3-6.05v2.97h1.92c.83 0 1.51-.68 1.51-1.51s-.68-1.51-1.51-1.51H7.39c-.02 0-.05.02-.05.05m8.98-.57c0-.36-.3-.65-.65-.65-.36 0-.65.29-.65.65V10h-.99c-.36 0-.65.29-.65.65 0 .35.29.65.65.65h.99v2.78c0 1.08.87 1.95 1.94 1.95h1.03c.36 0 .65-.29.65-.65 0-.35-.29-.65-.65-.65h-1.03c-.35 0-.64-.29-.64-.65V11.3h1.06c.36 0 .65-.3.65-.65 0-.36-.29-.65-.65-.65h-1.06z"/></svg>
